icons/reshape-subtract-geometry-24.svg

<?xml version="1.0" encoding="UTF-8"?><svg id="icons" xmlns="http://www.w3.org/2000/svg" viewBox="0 0 24 24"><defs><style>.cls-1{fill:none;}.cls-1,.cls-2,.cls-3,.cls-4{stroke-width:0px;}.cls-2{opacity:.5;}.cls-2,.cls-4{fill:#6f6f6f;}</style></defs><rect class="cls-4" x="16" y="4" width="7" height="1"/><path class="cls-3" d="M23,4v1h-7v-1h7ZM11,7h3v3h-1.125v9h1.125v3h-3v-1h-6v1h-3v-3h1V5h-1v-3h3v1.61719l6,3.59998v-.21716ZM3,4h1v-1h-1v1ZM4,20h-1v1h1v-1ZM12,20v1h1v-1h-1ZM12,9h1v-1h-1v1ZM12,10h-1v-1.61719l-6-3.59998v.21716h-1v14h1v1h6v-1h1v-9Z"/><path class="cls-2" d="M22,14v-3h-3v1.01685l-5-3.00018v.98334h-.30481l5.30481,3.18304v.81696h1.00006v5h-1.00006v1h-5.00006v1h5.00006v1h3v-3h-.99994v-5h.99994ZM21,21h-1v-1h1v1ZM20,13v-1h1v1h-1Z"/><rect class="cls-1" width="24" height="24"/></svg>

<svg xmlns="http://www.w3.org/2000/svg" viewBox="0 0 24 24"><path fill="#6f6f6f" stroke-width="0" d="M16 4h7v1h-7z"/><path d="M23 4v1h-7V4h7zM11 7h3v3h-1.125v9H14v3h-3v-1H5v1H2v-3h1V5H2V2h3v1.617l6 3.6V7zM3 4h1V3H3v1zm1 16H3v1h1v-1zm8 0v1h1v-1h-1zm0-11h1V8h-1v1zm0 1h-1V8.383l-6-3.6V5H4v14h1v1h6v-1h1v-9z" stroke-width="0"/><path d="M22 14v-3h-3v1.017l-5-3V10h-.305L19 13.183V14h1v5h-1v1h-5v1h5v1h3v-3h-1v-5h1zm-1 7h-1v-1h1v1zm-1-8v-1h1v1h-1z" fill="#6f6f6f" opacity=".5" stroke-width="0"/><path stroke-width="0" fill="none" d="M0 0h24v24H0z"/></svg>
